assets/svg/cart.svg

<?xml version="1.0" encoding="UTF-8"?>
<svg width="1000px" height="1000px" viewBox="0 0 1000 1000" version="1.1" xmlns="http://www.w3.org/2000/svg" xmlns:xlink="http://www.w3.org/1999/xlink">
    <!-- Generator: sketchtool 52.4 (67378) - http://www.bohemiancoding.com/sketch -->
    <title>cart</title>
    <desc>Created with sketchtool.</desc>
    <g id="新版图标" stroke="none" stroke-width="1" fill="none" fill-rule="evenodd">
        <g id="cart" fill="#323233">
            <g id="圆角-购物车2-面">
                <g id="圆角-编辑资料-面">
                    <g id="Group-2" transform="translate(0.000000, 111.111111)">
                        <circle id="Oval" cx="333.333333" cy="722.222222" r="55.5555556"></circle>
                        <circle id="Oval-Copy" cx="722.222222" cy="722.222222" r="55.5555556"></circle>
                        <path d="M220.551699,111.457492 L845.212223,111.457492 C850.16432,111.457492 855.106561,111.89891 859.980276,112.776504 C905.275536,120.932674 935.382716,164.26362 927.226545,209.558879 L867.216794,542.822774 C860.070152,582.511621 825.529623,611.388054 785.202472,611.388054 L296.281259,611.388054 C253.930549,611.388054 218.315028,579.623062 213.490433,537.548058 L161.054245,80.2552128 C159.446047,66.2302114 147.574206,55.6418809 133.457303,55.6418809 L55.5555556,55.6418809 C40.2143125,55.6418809 27.7777778,43.2053462 27.7777778,27.8641031 C27.7777778,12.5228601 40.2143125,0.0863253649 55.5555556,0.0863253649 L133.457303,0.0863253649 C175.808013,0.0863253649 211.423534,31.8513168 216.248129,73.9263211 L220.551699,111.457492 Z" id="Path-3" fill-rule="nonzero"></path>
                    </g>
                </g>
            </g>
        </g>
    </g>
</svg>

<svg width="1000" height="1000" xmlns="http://www.w3.org/2000/svg"><g transform="translate(0 111.111)" fill="#323233" fill-rule="evenodd"><circle cx="333.333" cy="722.222" r="55.556"/><circle cx="722.222" cy="722.222" r="55.556"/><path d="M220.552 111.457h624.66c4.952 0 9.895.442 14.768 1.32 45.296 8.156 75.403 51.487 67.247 96.782l-60.01 333.264c-7.147 39.689-41.687 68.565-82.015 68.565h-488.92c-42.351 0-77.967-31.765-82.792-73.84L161.054 80.255c-1.608-14.025-13.48-24.613-27.597-24.613H55.556c-15.342 0-27.778-12.437-27.778-27.778S40.214.086 55.556.086h77.901c42.351 0 77.967 31.765 82.791 73.84l4.304 37.531z" fill-rule="nonzero"/></g></svg>
